component-icons/svg/splitview.svg

<?xml version="1.0" encoding="utf-8"?>
<!-- Generator: Adobe Illustrator 24.2.3, SVG Export Plug-In . SVG Version: 6.00 Build 0)  -->
<svg version="1.1" id="Layer_1" xmlns="http://www.w3.org/2000/svg" xmlns:xlink="http://www.w3.org/1999/xlink" x="0px" y="0px"
	 width="24px" height="24px" viewBox="0 0 24 24" enable-background="new 0 0 24 24" xml:space="preserve">
<path d="M0,13h5l2-2H0V13z M0,17h5l2-2H0V17z M0,21h5l2-2H0V21z M9,3v18h15V3H9z M22,19H11V5h11V19z M0,5h5l2-2H0V5z M0,9h5l2-2H0V9
	z"/>
</svg>

<svg id="Layer_1" data-name="Layer 1" xmlns="http://www.w3.org/2000/svg" viewBox="0 0 24 24">
  <defs>
    <style>
      .cls-1 {
        fill: gray;
      }
    </style>
  </defs>
  <title>splitview</title>
  <path class="cls-1" d="M0,13H5l2-2H0Zm0,4H5l2-2H0Zm0,4H5l2-2H0ZM9,3V21H24V3ZM22,19H11V5H22ZM0,5H5L7,3H0ZM0,9H5L7,7H0Z"/>
</svg>
